**kern	**kern
*clefF4	*clefG2
*k[f#]	*k[f#]
*M3/4	*M3/4
*MM116	*MM116
=1	=1
2G 2B 2d	4dd
.	8g
.	8a
4A	8b
.	8cc
=2	=2
2.B	4dd
.	4g
.	4g
=3	=3
2.c	4ee
.	8cc
.	8dd
.	8ee
.	8ff#
=4	=4
2.B	4gg
.	4g
.	4g
=5	=5
2.A	4cc
.	8dd
.	8cc
.	8b
.	8a
=6	=6
2.G	4b
.	8cc
.	8b
.	8a
.	8g
=7	=7
4d	4f#
4B	8g
.	8a
4G	8b
.	8g
=8	=8
4d	2.a
8D	.
8c	.
8B	.
8A	.
=9	=9
2B	4dd
.	8g
.	8a
4A	8b
.	8cc
=10	=10
4G	4dd
4B	4g
4G	4g
=11	=11
2.c	4ee
.	8cc
.	8dd
.	8ee
.	8ff#
=12	=12
4B	4gg
8c	4g
8B	.
8A	4g
8G	.
=13	=13
2A	4cc
.	8dd
.	8cc
4F#	8b
.	8a
=14	=14
2G	4b
.	8cc
.	8b
4B	8a
.	8g
=15	=15
4c	4a
4d	8b
.	8a
4D	8g
.	8f#
=16	=16
2G	2.g
4GG	.
=17	=17
2GG 2BB 2D	4d
.	8G
.	8A
4AA	8B
.	8c
=18	=18
2.BB	4d
.	4G
.	4G
=19	=19
2.C	4e
.	8c
.	8d
.	8e
.	8f#
=20	=20
2.BB	4g
.	4G
.	4G
=21	=21
2.AA	4c
.	8d
.	8c
.	8B
.	8A
=22	=22
2.GG	4B
.	8c
.	8B
.	8A
.	8G
=23	=23
4D	4F#
4BB	8G
.	8A
4GG	8B
.	8G
=24	=24
4D	2.A
8DD	.
8C	.
8BB	.
8AA	.
=25	=25
2BB	4d
.	8G
.	8A
4AA	8B
.	8c
=26	=26
4GG	4d
4BB	4G
4GG	4G
=27	=27
2.C	4e
.	8c
.	8d
.	8e
.	8f#
=28	=28
4BB	4g
8C	4G
8BB	.
8AA	4G
8GG	.
=29	=29
2AA	4c
.	8d
.	8c
4FF#	8B
.	8A
=30	=30
2GG	4B
.	8c
.	8B
4BB	8A
.	8G
=31	=31
4C	4A
4D	8B
.	8A
4DD	8G
.	8F#
=32	=32
2GG	2.G
4GGG	.
=33	=33
2.GG	4b
.	8g
.	8a
.	8b
.	8g
=34	=34
2.FF#	4a
.	8d
.	8e
.	8f#
.	8d
=35	=35
4EE	4g
4GG	8e
.	8f#
4EE	8g
.	8d
=36	=36
2AA	4c#
.	8B
.	8c#
4AAA	4A
=37	=37
2.AA	8A
.	8B
.	8c#
.	8d
.	8e
.	8f#
=38	=38
4BB	4g
4D	4f#
4C#	4e
=39	=39
4D	4f#
4FF#	4A
4AA	4c#
=40	=40
4D	2.d
4DD	.
4C	.
=41	=41
4BB	4d
4BB 4D	8G
.	8F#
4BB 4D	4G
=42	=42
4C	4e
4C 4E	8G
.	8F#
4C 4E	4G
=43	=43
4BB	4d
4AA	4c
4GG	4B
=44	=44
2D	8A
.	8G
.	8F#
.	8G
4r	4A
=45	=45
2D	8D
.	8E
.	8F#
.	8G
4FF# 4D	8A
.	8B
=46	=46
4EE	4c
4GG	4B
4FF#	4A
=47	=47
4GG	8B
.	8d
4BBB	4G
4DD	4F#
=48	=48
4GG	4BB 4D 4G
4DD	2G
4GGG	.
=49	=49
2.GG	4b
.	8g
.	8a
.	8b
.	8g
=50	=50
2.FF#	4a
.	8d
.	8e
.	8f#
.	8d
=51	=51
4EE	4g
4GG	8e
.	8f#
4EE	8g
.	8d
=52	=52
2AA	4c#
.	8B
.	8c#
4AAA	4A
=53	=53
2.AA	8A
.	8B
.	8c#
.	8d
.	8e
.	8f#
=54	=54
4BB	4g
4D	4f#
4C#	4e
=55	=55
4D	4f#
4FF#	4A
4AA	4c#
=56	=56
4D	2.d
4DD	.
4C	.
=57	=57
4BB	4d
4BB 4D	8G
.	8F#
4BB 4D	4G
=58	=58
4C	4e
4C 4E	8G
.	8F#
4C 4E	4G
=59	=59
4BB	4d
4AA	4c
4GG	4B
=60	=60
2D	8A
.	8G
.	8F#
.	8G
4r	4A
=61	=61
2D	8D
.	8E
.	8F#
.	8G
4FF# 4D	8A
.	8B
=62	=62
4EE	4c
4GG	4B
4FF#	4A
=63	=63
4GG	8B
.	8d
4BBB	4G
4DD	4F#
=64	=64
4GG	4BB 4D 4G
4DD	2G
4GGG	.
==	==
*-	*-
